X:1
T:Burlington, CM
T:Burlington, CM
T:John Freckleton Burrowes, 1830
T:Public Domain Courtesy of the Cyber Hymnal™
C:John Freckleton Burrowes, 1830
Z:Public Domain
Z:Courtesy of the Cyber Hymnal™
%%score ( 1 2 ) ( 3 4 )
L:1/8
Q:1/4=107
M:4/4
K:Eb
V:1 treble 
V:2 treble 
V:3 bass 
V:4 bass 
V:1
 (EF) | [EG]2 (AG) [EF]2 [Ec]2 | [EB]2 E2 [DF]2 [FB]2 | [E=A]2 [FB]2 (dc) ([FB][EA]) | %4
 [DB]6 [DB]2 | [Ee]2 (dc) [EB]2 E2 | [Ee]2 (dc) [EB]2 [FA]2 | ([EG][GB]) ([FA][CF]) E2 (GF) | E6 |] %9
V:2
 E2 | x2 E2 x4 | x2 E2 x4 | x4 G2 x2 | x8 | x2 E2 x E2 x | x2 E2 x4 | x4 E2 D2 | E6 |] %9
V:3
 (G,A,) | [E,B,]2 (CB,) [E,=A,]2 [E,_A,]2 | [E,G,]2 [C,=A,]2 [B,,B,]2 [D,B,]2 | %3
 [C,C]2 [B,,D]2 (B,C) (DC) | [B,,B,]6 B,2 | [G,B,]2 A,2 [G,B,]2 [G,B,]2 | %6
 [G,B,]2 A,2 [G,B,]2 [D,B,]2 | ([E,B,][G,E]) ([F,C][A,,A,]) [B,,G,]2 [B,,A,]2 | [E,G,]6 |] %9
V:4
 E,2 | x2 E,2 x4 | x8 | x4 E,2 F,2 | x6 (B,A,) | x2 A,2 x4 | x2 A,2 x4 | x8 | x6 |] %9

